build/fonts/cisco/longreachcpe.svg

<?xml version="1.0" encoding="UTF-8" standalone="no"?>
<svg
   xmlns:dc="http://purl.org/dc/elements/1.1/"
   xmlns:cc="http://creativecommons.org/ns#"
   xmlns:rdf="http://www.w3.org/1999/02/22-rdf-syntax-ns#"
   xmlns:svg="http://www.w3.org/2000/svg"
   xmlns="http://www.w3.org/2000/svg"
   viewBox="0 0 37.5 37.5"
   height="37.5"
   width="37.5"
   xml:space="preserve"
   version="1.1"
   id="svg2"><metadata
     id="metadata8"><rdf:RDF><cc:Work
         rdf:about=""><dc:format>image/svg+xml</dc:format><dc:type
           rdf:resource="http://purl.org/dc/dcmitype/StillImage" /></cc:Work></rdf:RDF></metadata><defs
     id="defs6"><clipPath
       id="clipPath18"
       clipPathUnits="userSpaceOnUse"><path
         id="path20"
         d="M 0,10 0,297 300,297 300,10 0,10 Z" /></clipPath></defs><g
     transform="matrix(1.25,0,0,-1.25,0,37.5)"
     id="g10"><g
       transform="scale(0.1,0.1)"
       id="g12"><g
         id="g14"><g
           clip-path="url(#clipPath18)"
           id="g16"><path
             id="path22"
             style="fill:#087fbf;fill-opacity:1;fill-rule:nonzero;stroke:none"
             d="m 8.71094,14.0625 237.301,0 0,241.762 -237.301,0 0,-241.762 z" /><path
             id="path24"
             style="fill:none;stroke:#ffffff;stroke-width:4;stroke-linecap:butt;stroke-linejoin:miter;stroke-miterlimit:4;stroke-dasharray:none;stroke-opacity:1"
             d="m 8.71094,14.0625 237.301,0 0,241.762 -237.301,0 0,-241.762 z" /><path
             id="path26"
             style="fill:#087fbf;fill-opacity:1;fill-rule:nonzero;stroke:none"
             d="m 298.16,54.0625 0.121,238.9805 -51.91,-37.219 0,-241.7615 51.789,40" /><path
             id="path28"
             style="fill:none;stroke:#ffffff;stroke-width:4;stroke-linecap:butt;stroke-linejoin:miter;stroke-miterlimit:4;stroke-dasharray:none;stroke-opacity:1"
             d="m 298.16,54.0625 0.121,238.9805 -51.91,-37.219 0,-241.7615 51.789,40 z" /><path
             id="path30"
             style="fill:#087fbf;fill-opacity:1;fill-rule:nonzero;stroke:none"
             d="m 243.871,255.234 54.41,37.809 -235.0427,0.281 -56.67971,-38.09 237.31241,0" /><path
             id="path32"
             style="fill:none;stroke:#ffffff;stroke-width:4;stroke-linecap:butt;stroke-linejoin:miter;stroke-miterlimit:4;stroke-dasharray:none;stroke-opacity:1"
             d="m 243.871,255.234 54.41,37.809 -235.0427,0.281 -56.67971,-38.09 237.31241,0 z" /><path
             id="path34"
             style="fill:#ffffff;fill-opacity:1;fill-rule:nonzero;stroke:none"
             d="m 44.9219,53.0039 156.637,0 0,36.6797 -156.637,0 0,-36.6797 z" /><path
             id="path36"
             style="fill:#ffffff;fill-opacity:1;fill-rule:nonzero;stroke:none"
             d="m 44.9219,100.824 156.637,0 0,24.0586 -156.637,0 0,-24.0586 z" /><path
             id="path38"
             style="fill:#ffffff;fill-opacity:1;fill-rule:nonzero;stroke:none"
             d="m 44.9219,136.793 156.637,0 0,21.6406 -156.637,0 0,-21.6406 z" /><path
             id="path40"
             style="fill:#ffffff;fill-opacity:1;fill-rule:nonzero;stroke:none"
             d="m 44.9219,168.391 156.637,0 0,17.543 -156.637,0 0,-17.543 z" /><path
             id="path42"
             style="fill:#ffffff;fill-opacity:1;fill-rule:nonzero;stroke:none"
             d="m 44.9219,196.293 156.637,0 0,10.3477 -156.637,0 0,-10.3477 z" /></g></g></g></g></svg>

<svg xmlns="http://www.w3.org/2000/svg" viewBox="0 0 37.5 37.5" height="37.5" width="37.5"><defs><clipPath id="a"><path d="M0 10v287h300V10H0z"/></clipPath></defs><g clip-path="url(#a)" transform="matrix(.13 0 0 -.13 0 37.5)"><path d="M8.71 14.063h237.302v241.762H8.71V14.063z" fill="#087fbf"/><path d="M8.71 14.063h237.302v241.762H8.71V14.063z" fill="none" stroke="#fff" stroke-width="4"/><path d="M298.16 54.063l.121 238.98-51.91-37.219V14.062l51.789 40" fill="#087fbf"/><path d="M298.16 54.063l.121 238.98-51.91-37.219V14.062l51.789 40z" fill="none" stroke="#fff" stroke-width="4"/><path d="M243.871 255.234l54.41 37.809-235.043.281-56.68-38.09h237.313" fill="#087fbf"/><path d="M243.871 255.234l54.41 37.809-235.043.281-56.68-38.09h237.313z" fill="none" stroke="#fff" stroke-width="4"/><path d="M44.922 53.004h156.637v36.68H44.922v-36.68zM44.922 100.824h156.637v24.059H44.922v-24.059zM44.922 136.793h156.637v21.64H44.922v-21.64zM44.922 168.391h156.637v17.543H44.922v-17.543zM44.922 196.293h156.637v10.348H44.922v-10.348z" fill="#fff"/></g></svg>
